build/category/CommentOutline.svg

<svg xmlns="http://www.w3.org/2000/svg" fill="none" viewBox="0 0 24 24" focusable="false"><path d="M0 0H24V24H0z"/><path fill="#74767B" fill-rule="evenodd" d="M7 5C5.34315 5 4 6.34315 4 8L4 18.7129C4 19.803 5.26091 20.409 6.1121 19.7281L9.52219 17L17 17C18.6569 17 20 15.6569 20 14L20 8C20 6.34315 18.6569 5 17 5L7 5ZM9.06618 15.7L5.3 18.7129L5.3 8C5.3 7.06112 6.06112 6.3 7 6.3L17 6.3C17.9389 6.3 18.7 7.06112 18.7 8L18.7 14C18.7 14.9389 17.9389 15.7 17 15.7L9.06618 15.7ZM9.14219 8.99356C8.7832 8.99356 8.49219 9.28458 8.49219 9.64356C8.49219 10.0025 8.7832 10.2936 9.14219 10.2936L14.8579 10.2936C15.2169 10.2936 15.5079 10.0025 15.5079 9.64356C15.5079 9.28458 15.2169 8.99356 14.8579 8.99356L9.14219 8.99356ZM8.49219 12.6361C8.49219 12.2771 8.7832 11.9861 9.14219 11.9861L12.7912 11.9861C13.1502 11.9861 13.4412 12.2771 13.4412 12.6361C13.4412 12.9951 13.1502 13.2861 12.7912 13.2861L9.14219 13.2861C8.7832 13.2861 8.49219 12.9951 8.49219 12.6361Z"/></svg>

<svg xmlns="http://www.w3.org/2000/svg" fill="none" viewBox="0 0 24 24" focusable="false"><path fill="#74767B" fill-rule="evenodd" d="M7 5C5.34 5 4 6.34 4 8v10.71c0 1.09 1.26 1.69 2.11 1.01L9.52 17H17c1.65 0 3-1.35 3-3V8c0-1.66-1.35-3-3-3zm2.06 10.7-3.77 3.01V8c0-.94.77-1.7 1.71-1.7h10c.93 0 1.7.76 1.7 1.7v6c0 .93-.77 1.7-1.7 1.7zm-.57-6.06c0-.36.29-.65.65-.65h5.71c.36 0 .65.29.65.65s-.29.65-.65.65H9.14c-.36 0-.65-.29-.65-.65m0 2.99c0-.36.29-.65.65-.65h3.65c.36 0 .65.29.65.65s-.29.65-.65.65H9.14c-.36 0-.65-.29-.65-.65"/></svg>
